X: 02
T: the East India Volunteers
%R: jig
B: Thompson "A Favourite Collection of Country Dances 1800", p.2
F: https://deriv.nls.uk/dcn23/1205/2168/120521683.23.pdf
Z: 2019 John Chambers <jc:trillian.mit.edu>
M: 6/8
L: 1/8
K: A
% - - - - - - - - - - - - - - - - - - - - - - - - - - - - -
% Voice 1 formatted for a US-letter/A4 page size.
V: 1
e/c/ |\
AAA AcA | FFF F3 | FdB Gec | AAA A2 :: e | =ggg gec | ddd d/c/d/e/f/g/ |
aaa af^d | eee e/f/e/=d/c/B/ | AAA AcA | FFF F3 | FdB Gec | AAA A2 :|
% - - - - - - - - - - - - - - - - - - - - - - - - - - - - -
% Voice 2 preserves the original staff breaks.
V: 2 clef=bass middle=d
z | Ace aec | dAF D3 | d2z e2z | aec A2 :: z | Ace a2A | dfa d2z |
B^df b2B | egb e2z | Ace aec | dAF D3 | d2z e2z | aec A2 :|
% - - - - - - - - - - - - - - - - - - - - - - - - - - - - -
%%begintext align
%% The 1st & 2d Cu: set & change sides .|
%% back again .|.
%% lead down 2 Cu & up again :|.
%% hands 3 round with the same Gent :|:
%% cross over 1 Cu .|.
%% right & left .:|:.
%%endtext
%%sep 2 2 400
